X:181
T:Schottisch från Lindome
T:(SvL Västergötland 181)
R:Schottis
S:Astor Conrad Carlsson
O:Askim, Västergötland och Lindome, Halland
B:Svenska Låtar Västergötland
M:2/4
L:1/16
K:D
v(AB)AF A2d2-|Ld(cB)A B2g2|(gf)(ed) c(BA)G|(FGA)d f2d2|
(AB)AF A2d2-|Ld(cB)A B2g2|(gf)(ed) c(BA)c|e2d2 d4:|
|:a2af (de)f^/g|a2af [gB]2[gB]2|e2ed (cd)ef|gage [Af]2f2|
a2af (de)f^/g|a2a2 [gB]4|(ab)ag (fg)ec|e2d2 d4:|

